X:0917
M:C
L:1/8
Q:1/4=80 "Slow"
K:E Minor
  G2FE B2e2|dcBA B3B|edcB cBAG|BAGF E3:|
  E2e2 edcB|dcBA B3A|G2FE A2e2|dcBA B3f|gfe^d e2Ac|BAGF E3:|

